X:1
T:Vater Unser, 88.88.88
T:Geistliche Lieder, 1539; harm. by J. S. Bach
T:Vater Unser, 88.88.88
T:Public Domain
C:Geistliche Lieder, 1539; harm. by J. S. Bach
Z:Public Domain
%%score ( 1 2 ) ( 3 4 )
L:1/8
M:4/4
K:Eb
V:1 treble 
V:2 treble 
V:3 bass 
V:4 bass 
V:1
 [EG]2 | [DG]2 [CE]2 (CD) [EG]2 | [CE]2 [=B,D]2 C2 [EG]2 | [EG]2 (DE) [FB]2 [EG]2 | %4
 [CE]2 [CF]2 [DG]2 [EG]2 | [DB]2 ([Ec][Fd]) [Ge]2 [Fd]2 | (EF) [G=B]2 [=Ec]2 [Fc]2 | %7
 [Fd]2 [^Fc]2 [GB]2 (GF) | G2 [D^F]2 [DG]2 [=Fc]2 | [FB]2 [E=A]2 [DB]2 (ED) | %10
 [CG]2 [DF]2 E2 [CG]2 | [FA]2 ([EG][DF]) [CE]2 [DF]2 | [CE]2 [=B,D]2 C2 |] %13
V:2
 x2 | x4 F2 x2 | x4 C2 x2 | x2 F2 x4 | x8 | x8 | c2 x6 | x6 =A2 | G2 x6 | x6 G2 | x8 | x8 | %12
 x4 C2 |] %13
V:3
 [C,C]2 | [=B,,G,]2 [C,G,]2 [F,A,]2 (E,F,) | G,2 [G,,G,]2 [C,E,]2 C2 | (G,A,) B,2 [D,B,]2 [E,B,]2 | %4
 [A,C]2 [A,,C]2 [G,,=B,]2 [C,C]2 | [G,B,]2 [F,A,]2 [E,G,]2 ([F,=A,][G,=B,]) | %6
 [A,C]2 [G,D]2 [C,C]2 [F,=A,]2 | B,2 [=A,C]2 [G,D]2 ([C,E][D,D]) | (DC) [D,=A,]2 [G,B,]2 [F,A,]2 | %9
 [D,B,]2 [C,C]2 [B,,F,]2 (C,B,,) | [A,,E,]2 [B,,B,]2 [E,G,]2 [=E,C]2 | %11
 [F,C]2 [G,=B,]2 ([A,C][G,_B,]) [F,A,]2 | G,2 (G,F,) [C,=E,]2 |] %13
V:4
 x2 | x6 C2 | G,2 x2 C2 x2 | B,2 B,2 x4 | x8 | x8 | x8 | B,2 x6 | E,2 x6 | x6 E,2 | x8 | x8 | %12
 G,2 G,,2 x2 |] %13

